img/icons/action/print.svg

<svg fill="none" viewBox="0 0 16 16" xmlns="http://www.w3.org/2000/svg"><path d="m3 1.5c0-0.828 0.672-1.5 1.5-1.5h5.09c0.398 0 0.779 0.158 1.06 0.439l1.91 1.91c0.281 0.281 0.439 0.663 0.439 1.06v2.59h1c1.1 0 2 0.895 2 2v4c0 0.904-0.599 1.67-1.42 1.92 0.413 0.961-0.285 2.08-1.38 2.08h-10.4c-1.1 0-1.8-1.12-1.38-2.08-0.823-0.248-1.42-1.01-1.42-1.92v-4c0-1.1 0.895-2 2-2h1v-4.5zm1.5-0.5c-0.276 0-0.5 0.224-0.5 0.5v6.5h8v-4h-2.5c-0.276 0-0.5-0.224-0.5-0.5v-2.5h-4.5zm5.5 0.207 1.79 1.79h-1.79v-1.79zm4.03 11.8c0.54-0.0142 0.973-0.456 0.973-1v-4c0-0.552-0.448-1-1-1h-1v1.5c0 0.276-0.224 0.5-0.5 0.5h-9c-0.276 0-0.5-0.224-0.5-0.5v-1.5h-1c-0.552 0-1 0.448-1 1v4c0 0.543 0.433 0.985 0.973 1l1.1-1.76c0.0914-0.146 0.252-0.235 0.424-0.235h9c0.172 0 0.333 0.0888 0.424 0.235l1.1 1.76zm-11.6 1.24 1.4-2.24h8.45l1.4 2.24c0.208 0.333-0.0313 0.765-0.424 0.765h-10.4c-0.393 0-0.632-0.432-0.424-0.765z" clip-rule="evenodd" fill="#000" fill-rule="evenodd"/></svg>

<svg xmlns="http://www.w3.org/2000/svg" viewBox="0 0 16 16" fill="none">
  <path fill="#000" fill-rule="evenodd"
    d="M3 1.5A1.5 1.5 0 0 1 4.5 0h5.086a1.5 1.5 0 0 1 1.06.44l1.915 1.914A1.5 1.5 0 0 1 13 3.414V6h1a2 2 0 0 1 2 2v4a2 2 0 0 1-1.422 1.915c.413.962-.285 2.085-1.382 2.085H2.804c-1.097 0-1.795-1.123-1.382-2.085A2 2 0 0 1 0 12V8a2 2 0 0 1 2-2h1V1.5ZM4.5 1a.5.5 0 0 0-.5.5V8h8V4H9.5a.5.5 0 0 1-.5-.5V1H4.5Zm5.5.207L11.793 3H10V1.207ZM14.027 13A1 1 0 0 0 15 12V8a1 1 0 0 0-1-1h-1v1.5a.5.5 0 0 1-.5.5h-9a.5.5 0 0 1-.5-.5V7H2a1 1 0 0 0-1 1v4a1 1 0 0 0 .973 1l1.103-1.765A.5.5 0 0 1 3.5 11h9a.5.5 0 0 1 .424.235L14.027 13ZM2.38 14.235 3.777 12h8.446l1.397 2.235a.5.5 0 0 1-.424.765H2.804a.5.5 0 0 1-.424-.765Z"
    clip-rule="evenodd" />
</svg>
